static/img/kroki/e10035e6e692285db5e3321ce5dcfb29.svg

<?xml version="1.0" encoding="us-ascii" standalone="no"?><svg xmlns="http://www.w3.org/2000/svg" xmlns:xlink="http://www.w3.org/1999/xlink" contentStyleType="text/css" height="352px" preserveAspectRatio="none" style="width:436px;height:352px;" version="1.1" viewBox="0 0 436 352" width="436px" zoomAndPan="magnify"><defs/><g><!--class aws_bedrock_agent--><g id="elem_aws_bedrock_agent"><rect codeLine="23" fill="#3D176E" height="39.7891" id="aws_bedrock_agent" rx="2.5" ry="2.5" style="stroke:#000D19;stroke-width:0.5;" width="206" x="129.5" y="7"/><ellipse cx="144.5" cy="26.8945" fill="#ADD1B2" rx="11" ry="11" style="stroke:#181818;stroke-width:1.0;"/><path d="M147.4688,32.5352 Q146.8906,32.832 146.25,32.9727 Q145.6094,33.1289 144.9063,33.1289 Q142.4063,33.1289 141.0781,31.4883 Q139.7656,29.832 139.7656,26.707 Q139.7656,23.582 141.0781,21.9258 Q142.4063,20.2695 144.9063,20.2695 Q145.6094,20.2695 146.25,20.4258 Q146.9063,20.582 147.4688,20.8789 L147.4688,23.5977 Q146.8438,23.0195 146.25,22.7539 Q145.6563,22.4727 145.0313,22.4727 Q143.6875,22.4727 143,23.5508 Q142.3125,24.6133 142.3125,26.707 Q142.3125,28.8008 143,29.8789 Q143.6875,30.9414 145.0313,30.9414 Q145.6563,30.9414 146.25,30.6758 Q146.8438,30.3945 147.4688,29.8164 L147.4688,32.5352 Z " fill="#000000"/><text fill="#D9B8FF" font-family="Helvetica" font-size="17" lengthAdjust="spacing" textLength="164" x="163.5" y="32.7798">aws_bedrock_agent</text></g><!--class aws_bedrock_agent_version--><g id="elem_aws_bedrock_agent_version"><rect codeLine="26" fill="#3D176E" height="39.7891" id="aws_bedrock_agent_version" rx="2.5" ry="2.5" style="stroke:#000D19;stroke-width:0.5;" width="276" x="94.5" y="106.79"/><ellipse cx="109.5" cy="126.6845" fill="#ADD1B2" rx="11" ry="11" style="stroke:#181818;stroke-width:1.0;"/><path d="M112.4688,132.3252 Q111.8906,132.622 111.25,132.7627 Q110.6094,132.9189 109.9063,132.9189 Q107.4063,132.9189 106.0781,131.2783 Q104.7656,129.622 104.7656,126.497 Q104.7656,123.372 106.0781,121.7158 Q107.4063,120.0595 109.9063,120.0595 Q110.6094,120.0595 111.25,120.2158 Q111.9063,120.372 112.4688,120.6689 L112.4688,123.3877 Q111.8438,122.8095 111.25,122.5439 Q110.6563,122.2627 110.0313,122.2627 Q108.6875,122.2627 108,123.3408 Q107.3125,124.4033 107.3125,126.497 Q107.3125,128.5908 108,129.6689 Q108.6875,130.7314 110.0313,130.7314 Q110.6563,130.7314 111.25,130.4658 Q111.8438,130.1845 112.4688,129.6064 L112.4688,132.3252 Z " fill="#000000"/><text fill="#D9B8FF" font-family="Helvetica" font-size="17" lengthAdjust="spacing" textLength="234" x="128.5" y="132.5698">aws_bedrock_agent_version</text></g><!--class aws_bedrock_guardrail--><g id="elem_aws_bedrock_guardrail"><rect codeLine="29" fill="#3D176E" height="39.7891" id="aws_bedrock_guardrail" rx="2.5" ry="2.5" style="stroke:#000D19;stroke-width:0.5;" width="233" x="7" y="206.58"/><ellipse cx="22" cy="226.4745" fill="#ADD1B2" rx="11" ry="11" style="stroke:#181818;stroke-width:1.0;"/><path d="M24.9688,232.1152 Q24.3906,232.412 23.75,232.5527 Q23.1094,232.7089 22.4063,232.7089 Q19.9063,232.7089 18.5781,231.0683 Q17.2656,229.412 17.2656,226.287 Q17.2656,223.162 18.5781,221.5058 Q19.9063,219.8495 22.4063,219.8495 Q23.1094,219.8495 23.75,220.0058 Q24.4063,220.162 24.9688,220.4589 L24.9688,223.1777 Q24.3438,222.5995 23.75,222.3339 Q23.1563,222.0527 22.5313,222.0527 Q21.1875,222.0527 20.5,223.1308 Q19.8125,224.1933 19.8125,226.287 Q19.8125,228.3808 20.5,229.4589 Q21.1875,230.5214 22.5313,230.5214 Q23.1563,230.5214 23.75,230.2558 Q24.3438,229.9745 24.9688,229.3964 L24.9688,232.1152 Z " fill="#000000"/><text fill="#D9B8FF" font-family="Helvetica" font-size="17" lengthAdjust="spacing" textLength="191" x="41" y="232.3598">aws_bedrock_guardrail</text></g><!--class aws_kms_key--><g id="elem_aws_kms_key"><rect codeLine="32" fill="#3D176E" height="39.7891" id="aws_kms_key" rx="2.5" ry="2.5" style="stroke:#000D19;stroke-width:0.5;" width="158" x="213.5" y="306.37"/><ellipse cx="228.5" cy="326.2645" fill="#ADD1B2" rx="11" ry="11" style="stroke:#181818;stroke-width:1.0;"/><path d="M231.4688,331.9052 Q230.8906,332.202 230.25,332.3427 Q229.6094,332.4989 228.9063,332.4989 Q226.4063,332.4989 225.0781,330.8583 Q223.7656,329.202 223.7656,326.077 Q223.7656,322.952 225.0781,321.2958 Q226.4063,319.6395 228.9063,319.6395 Q229.6094,319.6395 230.25,319.7958 Q230.9063,319.952 231.4688,320.2489 L231.4688,322.9677 Q230.8438,322.3895 230.25,322.1239 Q229.6563,321.8427 229.0313,321.8427 Q227.6875,321.8427 227,322.9208 Q226.3125,323.9833 226.3125,326.077 Q226.3125,328.1708 227,329.2489 Q227.6875,330.3114 229.0313,330.3114 Q229.6563,330.3114 230.25,330.0458 Q230.8438,329.7645 231.4688,329.1864 L231.4688,331.9052 Z " fill="#000000"/><text fill="#D9B8FF" font-family="Helvetica" font-size="17" lengthAdjust="spacing" textLength="116" x="247.5" y="332.1498">aws_kms_key</text></g><!--link aws_bedrock_agent to aws_bedrock_agent_version--><g id="link_aws_bedrock_agent_aws_bedrock_agent_version"><path codeLine="35" d="M232.5,47.22 C232.5,64.36 232.5,83.28 232.5,100.41 " fill="none" id="aws_bedrock_agent-to-aws_bedrock_agent_version" style="stroke:#1A83AF;stroke-width:2.0;"/><polygon fill="#1A83AF" points="232.5,106.41,236.5,97.41,232.5,101.41,228.5,97.41,232.5,106.41" style="stroke:#1A83AF;stroke-width:2.0;"/></g><!--link aws_bedrock_agent to aws_bedrock_guardrail--><g id="link_aws_bedrock_agent_aws_bedrock_guardrail"><path codeLine="36" d="M157.73,47.18 C127.34,59.09 95.26,77.83 77.5,106.79 C57.52,139.39 81.7046,177.5242 101.9846,201.8142 " fill="none" id="aws_bedrock_agent-to-aws_bedrock_guardrail" style="stroke:#1A83AF;stroke-width:2.0;"/><polygon fill="#1A83AF" points="105.83,206.42,103.1324,196.9478,102.6255,202.5819,96.9914,202.075,105.83,206.42" style="stroke:#1A83AF;stroke-width:2.0;"/></g><!--link aws_bedrock_agent to aws_kms_key--><g id="link_aws_bedrock_agent_aws_kms_key"><path codeLine="37" d="M307.27,47.18 C337.66,59.09 369.74,77.83 387.5,106.79 C429.76,175.73 356.3067,262.5414 317.2267,301.7314 " fill="none" id="aws_bedrock_agent-to-aws_kms_key" style="stroke:#1A83AF;stroke-width:2.0;"/><polygon fill="#1A83AF" points="312.99,305.98,322.1774,302.4316,316.5206,302.4395,316.5126,296.7827,312.99,305.98" style="stroke:#1A83AF;stroke-width:2.0;"/></g><!--link aws_bedrock_agent_version to aws_bedrock_guardrail--><g id="link_aws_bedrock_agent_version_aws_bedrock_guardrail"><path codeLine="38" d="M210.97,147.01 C191.86,164.15 168.5556,185.0527 149.4556,202.1927 " fill="none" id="aws_bedrock_agent_version-to-aws_bedrock_guardrail" style="stroke:#1A83AF;stroke-width:2.0;"/><polygon fill="#1A83AF" points="144.99,206.2,154.3599,203.1661,148.7113,202.8606,149.0168,197.212,144.99,206.2" style="stroke:#1A83AF;stroke-width:2.0;"/></g><!--link aws_bedrock_agent_version to aws_kms_key--><g id="link_aws_bedrock_agent_version_aws_kms_key"><path codeLine="39" d="M238.67,146.78 C243.8,162.74 251.24,186.11 257.5,206.58 C268.18,241.5 278.4419,276.6165 285.2519,300.1465 " fill="none" id="aws_bedrock_agent_version-to-aws_kms_key" style="stroke:#1A83AF;stroke-width:2.0;"/><polygon fill="#1A83AF" points="286.92,305.91,288.2602,296.1528,285.53,301.1071,280.5756,298.3768,286.92,305.91" style="stroke:#1A83AF;stroke-width:2.0;"/></g><!--link aws_bedrock_guardrail to aws_kms_key--><g id="link_aws_bedrock_guardrail_aws_kms_key"><path codeLine="40" d="M156.89,246.8 C186.52,263.94 224.3772,285.8441 253.9872,302.9841 " fill="none" id="aws_bedrock_guardrail-to-aws_kms_key" style="stroke:#1A83AF;stroke-width:2.0;"/><polygon fill="#1A83AF" points="259.18,305.99,253.3948,298.0194,254.8527,303.4851,249.3869,304.943,259.18,305.99" style="stroke:#1A83AF;stroke-width:2.0;"/></g><!--SRC=[dP91Jy9048Nl_HMRS2QXDbguc5GIeXTYn9inPDgTBPksksHs2q7ZVxS8ujAoe1xsCk-RVMyciv0S6LPBks4LLYcI2KmXrH88AfOGwVLObvfOJmWGKTmM9rhPYy0KAcJtMAxGoWpQnFD2PeL2OzYL8zr1LkIaQyLttri2PHe9bNMeSGd69DQIJ6kBJXW-IeT2jCdsfxs8X_4DTZ1D76cF30O37exQo4MhitCVY9byGnQwIvjgYvsO7OilwcpABU64x0pwhNipFWBdKkNisgazxJAHGZggpnR0zNfB2oYDQsCi4cgxMUAuCnMEXbp49-477nnaszKnM9jvYfnqLimXRsw2lGV1Xq-ShvgpbbhveBm6uWIoR0D5rJpSxCfTp_vBBqo6KJ9vxT_wNV_IU4ZocwPzki0_xtzy_Csd_7vMvyK_0G00]--></g></svg>

<svg xmlns="http://www.w3.org/2000/svg" width="436" height="352" viewBox="0 0 436 352"><rect width="206" height="39.789" x="129.5" y="7" fill="#3D176E" rx="2.5" ry="2.5" style="stroke:#000d19;stroke-width:.5"/><circle cx="144.5" cy="26.895" r="11" fill="#ADD1B2" style="stroke:#181818;stroke-width:1"/><path d="M147.469 32.535q-.578.297-1.219.438-.64.156-1.344.156-2.5 0-3.828-1.64-1.312-1.657-1.312-4.782t1.312-4.781q1.328-1.656 3.828-1.656.703 0 1.344.156.656.156 1.219.453v2.719q-.625-.578-1.219-.844-.594-.281-1.219-.281-1.344 0-2.031 1.078-.687 1.062-.687 3.156t.687 3.172q.688 1.062 2.031 1.062.625 0 1.219-.265.594-.281 1.219-.86z"/><text x="163.5" y="32.78" fill="#D9B8FF" font-family="Helvetica" font-size="17" textLength="164">aws_bedrock_agent</text><rect width="276" height="39.789" x="94.5" y="106.79" fill="#3D176E" rx="2.5" ry="2.5" style="stroke:#000d19;stroke-width:.5"/><circle cx="109.5" cy="126.684" r="11" fill="#ADD1B2" style="stroke:#181818;stroke-width:1"/><path d="M112.469 132.325q-.578.297-1.219.438-.64.156-1.344.156-2.5 0-3.828-1.64-1.312-1.657-1.312-4.782t1.312-4.781q1.328-1.656 3.828-1.656.703 0 1.344.156.656.156 1.219.453v2.719q-.625-.579-1.219-.844-.594-.281-1.219-.281-1.344 0-2.031 1.078-.687 1.062-.687 3.156t.687 3.172q.688 1.062 2.031 1.062.625 0 1.219-.265.594-.281 1.219-.86z"/><text x="128.5" y="132.57" fill="#D9B8FF" font-family="Helvetica" font-size="17" textLength="234">aws_bedrock_agent_version</text><rect width="233" height="39.789" x="7" y="206.58" fill="#3D176E" rx="2.5" ry="2.5" style="stroke:#000d19;stroke-width:.5"/><circle cx="22" cy="226.475" r="11" fill="#ADD1B2" style="stroke:#181818;stroke-width:1"/><path d="M24.969 232.115q-.578.297-1.219.438-.64.156-1.344.156-2.5 0-3.828-1.64-1.312-1.657-1.312-4.782t1.312-4.781q1.328-1.656 3.828-1.656.703 0 1.344.156.656.156 1.219.453v2.719q-.625-.578-1.219-.844-.594-.281-1.219-.281-1.343 0-2.031 1.078-.687 1.062-.687 3.156t.687 3.172q.688 1.062 2.031 1.062.625 0 1.219-.265.594-.281 1.219-.86z"/><text x="41" y="232.36" fill="#D9B8FF" font-family="Helvetica" font-size="17" textLength="191">aws_bedrock_guardrail</text><rect width="158" height="39.789" x="213.5" y="306.37" fill="#3D176E" rx="2.5" ry="2.5" style="stroke:#000d19;stroke-width:.5"/><circle cx="228.5" cy="326.264" r="11" fill="#ADD1B2" style="stroke:#181818;stroke-width:1"/><path d="M231.469 331.905q-.578.297-1.219.438-.64.156-1.344.156-2.5 0-3.828-1.64-1.312-1.657-1.312-4.782t1.312-4.781q1.328-1.656 3.828-1.656.703 0 1.344.156.656.156 1.219.453v2.719q-.625-.579-1.219-.844-.594-.281-1.219-.281-1.344 0-2.031 1.078-.687 1.062-.687 3.156t.687 3.172q.688 1.062 2.031 1.062.625 0 1.219-.265.594-.281 1.219-.86z"/><text x="247.5" y="332.15" fill="#D9B8FF" font-family="Helvetica" font-size="17" textLength="116">aws_kms_key</text><path fill="none" d="M232.5 47.22v53.19" style="stroke:#1a83af;stroke-width:2"/><path fill="#1A83AF" d="m232.5 106.41 4-9-4 4-4-4z" style="stroke:#1a83af;stroke-width:2"/><path fill="none" d="M157.73 47.18c-30.39 11.91-62.47 30.65-80.23 59.61-19.98 32.6 4.205 70.734 24.485 95.024" style="stroke:#1a83af;stroke-width:2"/><path fill="#1A83AF" d="m105.83 206.42-2.698-9.472-.507 5.634-5.634-.507z" style="stroke:#1a83af;stroke-width:2"/><path fill="none" d="M307.27 47.18c30.39 11.91 62.47 30.65 80.23 59.61 42.26 68.94-31.193 155.751-70.273 194.941" style="stroke:#1a83af;stroke-width:2"/><path fill="#1A83AF" d="m312.99 305.98 9.187-3.548-5.656.007-.008-5.656z" style="stroke:#1a83af;stroke-width:2"/><path fill="none" d="M210.97 147.01c-19.11 17.14-42.414 38.043-61.514 55.183" style="stroke:#1a83af;stroke-width:2"/><path fill="#1A83AF" d="m144.99 206.2 9.37-3.034-5.649-.305.306-5.649z" style="stroke:#1a83af;stroke-width:2"/><path fill="none" d="M238.67 146.78c5.13 15.96 12.57 39.33 18.83 59.8 10.68 34.92 20.942 70.036 27.752 93.566" style="stroke:#1a83af;stroke-width:2"/><path fill="#1A83AF" d="m286.92 305.91 1.34-9.757-2.73 4.954-4.954-2.73z" style="stroke:#1a83af;stroke-width:2"/><path fill="none" d="M156.89 246.8c29.63 17.14 67.487 39.044 97.097 56.184" style="stroke:#1a83af;stroke-width:2"/><path fill="#1A83AF" d="m259.18 305.99-5.785-7.97 1.458 5.465-5.466 1.458z" style="stroke:#1a83af;stroke-width:2"/></svg>
